white/mkr.svg

<!-- Generated by IcoMoon.io -->
<svg version="1.1" xmlns="http://www.w3.org/2000/svg" width="32" height="32" viewBox="0 0 32 32">
<title>mkr</title>
<path fill="#fff" d="M16 32c-8.837 0-16-7.163-16-16s7.163-16 16-16 16 7.163 16 16-7.163 16-16 16zM7.838 12.056l6.032 4.367v6.077h1.838v-6.973l-9.708-7.027v14h1.838zM18.13 16.423l6.032-4.367v10.444h1.838v-14l-9.708 7.027v6.973h1.838z"></path>
</svg>

<svg height="32" width="32" xmlns="http://www.w3.org/2000/svg"><path d="M16 32C7.163 32 0 24.837 0 16S7.163 0 16 0s16 7.163 16 16-7.163 16-16 16zM7.838 12.056l6.032 4.367V22.5h1.838v-6.973L6 8.5v14h1.838zm10.292 4.367l6.032-4.367V22.5H26v-14l-9.708 7.027V22.5h1.838z" fill="#fff" fill-rule="evenodd"/></svg>
